src/assets/icons/icon-delete.svg

<svg fill="none" height="18" viewBox="0 0 14 18" width="14" xmlns="http://www.w3.org/2000/svg"><path d="m1 16c0 1.1.9 2 2 2h8c1.1 0 2-.9 2-2v-12h-12zm2-10h8v10h-8zm7.5-5-1-1h-5l-1 1h-3.5v2h14v-2z" fill="#323232"/></svg>

<svg width="14" height="18" viewBox="0 0 14 18" fill="none" xmlns="http://www.w3.org/2000/svg">
<path d="M1 16C1 17.1 1.9 18 3 18H11C12.1 18 13 17.1 13 16V4H1V16ZM3 6H11V16H3V6ZM10.5 1L9.5 0H4.5L3.5 1H0V3H14V1H10.5Z" fill="#323232"/>
</svg>
